icons/mobile/20/svg/lightning-20.svg

<!-- This Source Code Form is subject to the terms of the Mozilla Public
   - License, v. 2.0. If a copy of the MPL was not distributed with this
   - file, You can obtain one at http://mozilla.org/MPL/2.0/. -->
<svg width="20" height="20" viewBox="0 0 20 20" fill="none" xmlns="http://www.w3.org/2000/svg">
    <path d="M11.7725 2C13.0099 2 13.8583 3.25117 13.3975 4.40039L12.3575 7H15.7227C17.0487 7 17.7236 8.59625 16.797 9.54688L16.796 9.5459L8.78719 17.7734C8.64604 17.9183 8.45234 18 8.25008 18H7.75008C7.53267 18 7.32612 17.9054 7.18367 17.7412C7.04122 17.577 6.97714 17.3588 7.00789 17.1436L7.88582 11H5.57429C4.53321 11 3.80574 9.96326 4.16609 8.9834L6.30574 3.14746C6.55813 2.45819 7.21479 2 7.94832 2H11.7725ZM7.94832 3.5C7.84427 3.5 7.74987 3.56502 7.71394 3.66309V3.66406L5.57429 9.5H8.75008C8.96747 9.50002 9.17405 9.59456 9.31648 9.75879C9.4589 9.92303 9.52301 10.1412 9.49226 10.3564L8.73152 15.6797L15.7227 8.5H11.2501C11.0013 8.5 10.7685 8.37679 10.629 8.1709C10.4895 7.96486 10.4614 7.70273 10.5538 7.47168L12.005 3.8418C12.0701 3.67905 11.9492 3.5 11.7725 3.5H7.94832Z" fill="black" />
</svg>

<!-- This Source Code Form is subject to the terms of the Mozilla Public
   - License, v. 2.0. If a copy of the MPL was not distributed with this
   - file, You can obtain one at http://mozilla.org/MPL/2.0/. -->
<svg xmlns="http://www.w3.org/2000/svg" width="20" height="20" fill="none" viewBox="0 0 20 20">
    <path fill="#000" d="M11.773 2a1.75 1.75 0 0 1 1.625 2.4L12.358 7h3.365c1.326 0 2 1.596 1.074 2.547l-.001-.001-8.009 8.227A.75.75 0 0 1 8.25 18h-.5a.75.75 0 0 1-.742-.856L7.886 11H5.574a1.5 1.5 0 0 1-1.408-2.017l2.14-5.836A1.75 1.75 0 0 1 7.948 2zM7.948 3.5a.25.25 0 0 0-.234.163v.001L5.574 9.5H8.75a.75.75 0 0 1 .742.856l-.76 5.324 6.99-7.18H11.25a.75.75 0 0 1-.696-1.028l1.451-3.63a.25.25 0 0 0-.232-.342z" />
</svg>
